X:49
T:Headlands March
M:C|
L:1/8
R: march
K:A
e>c|:d>cB>A A<cE>A|F>Ad<f e2 (3efg|a>ef<a f>ed<c|c>BA<c B2 e>c|
d>cB>A A<cE>A|F>Ad<f a2 g>f|e<aA>c B>fe>d|1 c2 A2 A2 e>c:|2 c2 A2 A2 (3efg||
a>ef<a c<ec>A|d>Ad<f e2 (3efg|a>ef<a f>ed<c|
|1 c>BA<c B2 (3efg|a>ef<a c<ec>A|d>Ad<f a2 g>f|e<aA>c B>fe<d|c2 A2 A2 (3efg:|
|2 c>BA<c B2 e>c|d>cB>A A<cE>A|F>Ad<f a2 g>f|e<aA>c B>fe>d|c2 A2 A2 |]

